X: 12829
T: Felix The Wrestler
R: jig
M: 6/8
K: Amixolydian
|:af|e3 ece|ecA Ad=c|BGG dGG|BAG Bcd|
e3 ece|ecA ABc|dcd Bcd|1 ecA A:|2 ecA A2||
|:f|eaa a^ga|efe edc|B2g gfg|ded dcB|
Aaa a^ga|efe eBc|dcd Bcd|1 ecA A2:|2 ecA A||

